X: 3431
T: Brudmarsch från Dorotea 
R: marsch 
H: Uppteckning och arrangemang: K. Gunnar, A. Karlsson och Siw Burman. Upptecknad efter Sören Johansson (f. 1939), Dorotea, som lärt sig den av Alf Persson, Storberget, Dorotea. 
M: C|
L: 1/8
Q: 92
K: D 

V:1 
(DF) |: A2(A>F) {F}G2(G>E) | {E}F2F2 (DF) (Ad) | c2(c>A) {A}B2(B>G) | A6(dc) |
B2(GB) {B}d2(cB) | (Ad) (FA) D2(FA) | G2A,2 (A,C) (EC) |1 [A,D]6(DF) :|2 [A,D]6(ag) | 
|: fd Ad f2{f}(gf) | (ec) (Ac) e2(ge) | (fd) (AF) (DF) (Ad) | [Ae]2[EA]>[EA] [EA]2(ag) | 
fd Ad f2{f}(gf) | (ec) (Ac) e2(ge) | f2 (fd) ce ac |1 {c}d6(ag) :|2 {c}d8 |]
V:2
(DF) |: F2F>D E2E>C | D2D2 (A,D) (FA) | A2(A/B/A/F/) G2(G/A/G/E/) | F2 (3(EFE) D2(BA) | 
{G,}G2DG {D}B2AG | (F>A) (D>F) A,2(DF) | (ED) (C(3B,/C/B,/) (A,B,) CE |1 D6(DE) :|2 D6(fe) |
|: dA FA d2 (e(3d/e/d/) | cA EA {A}c2(ec) | (dA) (FD) (A,D) (FA) | G2[A,E]>[A,E] [A,E]2fe | 
(dA) (FA) {ABc}d2(e(3d/e/d/) | (cA) (EA) {A}c2(ec) | d2(dA) (c(3B/c/B/) (AG) |1 F2((3EFE) D2(fe) :|2 F2((3EFE) D4 |]
(:musicend:)
(:music:)
